X: 41672
T: Upperchurch, The
R: polka
M: 2/4
K: Gmajor
|:B2B2|AG G2|FG AB|dc c2|
c2 c2|BA A2|GF EF|1 ED B,D:|2 AG G2||
|:dB B>c|dB B>c|dB eB|dc c2|
cA A>B|cA AB/c/|dc BA|1 GD B,D:|2 G2 GA||

